X:1     %Music
T:Sheepcrook and Black Dog
B:Broadwood, L, 1893, English County Songs, London, Leadenhall Press
S:From Mr Grantham, Carter.  (Surrey)
Z:Lucy Broadwood
F:http://www.folkinfo.org/songs
M:3/4     %Meter
L:1/8     %
K:G
D2 |G2 G2 A2 |F2 G2 B2 |d2 B2 e2 | d4
w:I'll spread the green branch-es al-though I am young; 
 D2 |G2 G2 A2 |FE D2 D2 |G2 E2 F2 | D4
w:So well do I live my love, so sweet-ly she sung;
 d2 |d2 B2 e2 |c2 A2 c2 |d2 c2 B2 | (A2 B2)
w: Was there ev-er man in so hap-py a state_ 
 G2 |E2 C2 G2 |E2 C2 G2 |F2 D2 D2 | G2 B2 A2 |G4 z2 |]
w:As I and my Flo-ra, my Flo-ra, fair Flo-ra so great?